src/images/svg/symbols/index75-new.svg

<svg width="33" height="32" viewBox="0 0 33 32" fill="none" xmlns="http://www.w3.org/2000/svg">
<path d="M22.834 13.0001H24.334V22H22.834V32H21.834V22H20.334V13.0001H21.834V11.0001H22.834V13.0001Z" fill="#85ACB0"/>
<path d="M30.334 11V18H28.834V22H27.834V18H26.334V11H30.334Z" fill="#85ACB0"/>
<path d="M16.834 20V16H15.834V20H14.334V28H15.834V30H16.834V28H18.334V20H16.834Z" fill="#85ACB0"/>
<path d="M10.834 15H12.334V21H10.834V28H9.83398V21H8.33398V15H9.83398V13H10.834V15Z" fill="#85ACB0"/>
<path d="M4.83398 19H6.33398V23H4.83398V25H3.83398V23H2.33398V19H3.83398V17H4.83398V19Z" fill="#85ACB0"/>
<path d="M0.333984 2C0.333984 0.89543 1.22941 0 2.33398 0H12.334C13.4386 0 14.334 0.895431 14.334 2V8C14.334 9.10457 13.4386 10 12.334 10H2.33398C1.22941 10 0.333984 9.10457 0.333984 8V2Z" fill="#0E0E0E"/>
<path d="M3.86456 8.00002L5.73656 3.39202H3.99256V4.40802H2.97656V2.41602H6.92856V3.45602L5.12856 8.00002H3.86456Z" fill="white"/>
<path d="M11.5094 3.46402H8.97344L8.85344 5.23202H8.91744C8.97077 5.09868 9.02944 4.97868 9.09344 4.87202C9.16277 4.76002 9.24277 4.66668 9.33344 4.59202C9.4241 4.51202 9.53344 4.45068 9.66144 4.40802C9.78944 4.36535 9.94144 4.34402 10.1174 4.34402C10.3574 4.34402 10.5814 4.38402 10.7894 4.46402C10.9974 4.54402 11.1788 4.66135 11.3334 4.81602C11.4881 4.96535 11.6108 5.15202 11.7014 5.37602C11.7921 5.59468 11.8374 5.84268 11.8374 6.12002C11.8374 6.40268 11.7894 6.66668 11.6934 6.91202C11.6028 7.15202 11.4641 7.36002 11.2774 7.53602C11.0961 7.71202 10.8721 7.85068 10.6054 7.95202C10.3388 8.04802 10.0348 8.09602 9.69344 8.09602C9.42144 8.09602 9.18144 8.06668 8.97344 8.00802C8.76544 7.94935 8.58144 7.87202 8.42144 7.77602C8.26144 7.67468 8.12277 7.56002 8.00544 7.43202C7.8881 7.30402 7.78677 7.16802 7.70144 7.02402L8.57344 6.33602C8.6961 6.55468 8.84277 6.74135 9.01344 6.89602C9.1841 7.04535 9.41344 7.12002 9.70144 7.12002C9.98944 7.12002 10.2054 7.03735 10.3494 6.87202C10.4988 6.70668 10.5734 6.48802 10.5734 6.21602V6.15202C10.5734 5.89602 10.4988 5.69335 10.3494 5.54402C10.2001 5.39468 9.99477 5.32002 9.73344 5.32002C9.51477 5.32002 9.33344 5.36535 9.18944 5.45602C9.05077 5.54135 8.9441 5.62668 8.86944 5.71202L7.88544 5.57602L8.09344 2.41602H11.5094V3.46402Z" fill="white"/>
</svg>

<svg width="33" height="32" fill="none" xmlns="http://www.w3.org/2000/svg"><path d="M22.834 13h1.5v9h-1.5v10h-1V22h-1.5v-9h1.5v-2h1v2ZM30.334 11v7h-1.5v4h-1v-4h-1.5v-7h4ZM16.834 20v-4h-1v4h-1.5v8h1.5v2h1v-2h1.5v-8h-1.5ZM10.834 15h1.5v6h-1.5v7h-1v-7h-1.5v-6h1.5v-2h1v2ZM4.834 19h1.5v4h-1.5v2h-1v-2h-1.5v-4h1.5v-2h1v2Z" fill="#85ACB0"/><path d="M.334 2a2 2 0 0 1 2-2h10a2 2 0 0 1 2 2v6a2 2 0 0 1-2 2h-10a2 2 0 0 1-2-2V2Z" fill="#0E0E0E"/><path d="m3.865 8 1.872-4.608H3.993v1.016H2.977V2.416h3.952v1.04L5.129 8H3.865ZM11.51 3.464H8.972l-.12 1.768h.064c.054-.133.112-.253.176-.36.07-.112.15-.205.24-.28.091-.08.2-.141.328-.184.128-.043.28-.064.456-.064.24 0 .464.04.672.12a1.599 1.599 0 0 1 .912.912c.091.219.136.467.136.744 0 .283-.048.547-.144.792-.09.24-.229.448-.416.624a1.939 1.939 0 0 1-.672.416c-.266.096-.57.144-.912.144-.272 0-.512-.03-.72-.088a2.261 2.261 0 0 1-.552-.232 2.043 2.043 0 0 1-.416-.344 2.456 2.456 0 0 1-.304-.408l.872-.688c.123.219.27.405.44.56.171.15.4.224.688.224.288 0 .504-.083.648-.248.15-.165.224-.384.224-.656v-.064c0-.256-.074-.459-.224-.608-.149-.15-.354-.224-.616-.224-.218 0-.4.045-.544.136-.138.085-.245.17-.32.256l-.984-.136.208-3.16h3.416v1.048Z" fill="#fff"/></svg>
